X:803
T:Polska från Lönsboda
C:efter [[!Bror Jeppsson]]
R:Polska
Z:Patrik Månsson, 2008-12-03
O:Lönsboda, Skåne
M:3/4
L:1/8
K:Gm
|: D>^F G2 A2 | B>d c2 d2 | G>A B2 (d>c) | A2 G>^F D2 |
D>^F G2 A2 | B>d c2 d2 | G>A B2 (d>c) | A2 G4 :|
|: (3d(ed) (3c(dc) (3B(cB) | A>c A2 G2 | G>A B2 (d>c) |
A2 (G>^F) D2 | (3d(ed) (3c(dc) (3B(cB) | A>c A2 G2 |
D2 ^F2 (3(FGF) | G2 G4 :| [DG]4 z2 |
(:musicend:)

(:music:)
